X: 16009
T: Great North Run, The
R: barndance
M: 4/4
K: Gmajor
G2~G2 FGAF|GABc dGBd|e2ce dBAG|ABAG EGDE|
G2~G2 FGAF|GABc dGBd|e2ce dBGB|1 AGFA G3D:|2 AGFA G2ef||
|:g2eg fdBd|edce dGBd|e2ce dBAG|ABAG EGDE|
G2~G2 FGAF|GABc dGBd|e2ce dBGB|1 AGFA G2ef:|2 AGFA G3D||

